Adwaita++/apps/scalable/balena-etcher-electron.svg

<svg height="128" width="128" xmlns="http://www.w3.org/2000/svg">
  <path d="m63.993455 7.8766814v.01514c-1.697196.07986-3.352143.423996-4.590314 1.067603l-41.572156 21.7476806v3.876686c13.510249 7.083529 29.081133 15.940599 39.932894 24.278502 3.336536 2.563608 5.584812 4.902501 7.119246 6.948884 1.53443-2.046245 3.78304-4.385521 7.119245-6.948884 10.600239-8.144646 25.705942-16.786805 38.994-23.786345v-3.876686l-42.075663-22.2398346c-1.238169-.643607-2.893105-.987704-4.590313-1.067603v-.01514c-.05629.000969-.112273.0056-.16847.0076-.05629-.0019-.112144-.0066-.168469-.0076zm-49.702217 31.9921226c-.400549 1.077148-.685026 2.251524-.791238 3.52839v22.317444.622768 22.319337c.459038 5.518501 4.130133 9.189832 7.003779 10.853962l38.899362 23.581915c.743767.38662 1.646958.65308 2.610327.83099l-.272579-50.639213h.0095c0-.02454.0029-.076.0038-.11736-.0047.0063-.01023.01685-.03408-.09275-.06056-.279104-.217053-.82594-.639805-1.629797-.845518-1.607717-2.771622-4.255915-7.136324-7.609515-10.444369-8.024879-26.113896-16.883329-39.652742-23.966171zm99.968522.637912c-13.25384 6.973411-28.304149 15.542348-38.437491 23.328259-4.3647 3.3536-6.290797 6.001798-7.136282 7.609511-.422739.803857-.579232 1.350694-.639806 1.629797-.02379.109614-.02933.09915-.03408.09275.0019.09346.0095.2669.0095.2669h-.0076l.205409 50.566067c.217379-.0876 2.536055-.48422 3.150684-1.00392l36.449936-23.485375c2.87364-1.66414 6.54473-5.335461 7.00377-10.853962v-22.319337-.622768-22.317444c-.0855-1.027623-.28169-1.991962-.56408-2.890478z" fill="#3d3846" opacity=".6"/>
  <path d="m63.993455 3.9999954v.015143c-1.697196.07986-3.352143.4239956-4.590314 1.0676029l-38.899362 23.5819107c-.857162.496386-1.780018 1.193073-2.672794 2.042453 13.510249 7.083529 29.081133 15.940599 39.932894 24.278502 3.336536 2.563608 5.584812 4.902501 7.119246 6.948884 1.53443-2.046245 3.78304-4.385521 7.119245-6.948884 10.600239-8.144645 25.705942-16.786805 38.994-23.786345-1.04123-1.088367-2.15697-1.944304-3.1763-2.53461l-38.899363-23.5819104c-1.238169-.6436073-2.893105-.9877044-4.590313-1.0676029v-.015143c-.05629.0009692-.112273.00563-.16847.00757-.05629-.00194-.112144-.0066-.168469-.00757zm-49.702217 31.9921226c-.400549 1.077148-.685026 2.251524-.791238 3.52839v22.317444.622768 22.319338c.459038 5.518501 4.130133 9.189828 7.003779 10.853963l38.899362 23.581919c.743767.38661 1.646958.65307 2.610327.83098l-.272579-50.639209h.0095c0-.02454.0029-.076.0038-.11736-.0047.0063-.01023.01685-.03408-.09275-.06056-.279103-.217053-.82594-.639805-1.629797-.845518-1.607717-2.771622-4.255915-7.136324-7.609515-10.444369-8.024879-26.113896-16.883329-39.652742-23.966171zm99.968522.637912c-13.25384 6.973411-28.304149 15.542348-38.437491 23.328259-4.3647 3.3536-6.290797 6.001798-7.136282 7.609511-.422739.803857-.579232 1.350694-.639806 1.629798-.02379.109613-.02933.09915-.03408.09275.0019.09346.0095.2669.0095.2669h-.0076l.205409 50.566062c.217379-.0876 2.536055-.48421 3.150684-1.00391l36.449976-23.485379c2.87364-1.664145 6.54473-5.335462 7.00377-10.853963v-22.319338-.622768-22.317444c-.0855-1.027623-.28169-1.991962-.56408-2.890478z" fill="#8ff0a4"/>
  <path d="m64.044564 21.443189v.01325c-1.188045.05592-2.347449.295279-3.214167.745808l-27.22766 16.508094c-.168104.09735-.344387.220023-.518658.336938 8.972041 5.135024 17.786454 10.641856 24.6798 15.938328 3.336536 2.563608 5.584812 4.902501 7.119246 6.948884 1.53443-2.046245 3.78304-4.385521 7.119245-6.948884 6.686256-5.137355 15.181975-10.470243 23.873419-15.472671-.391435-.309783-.781756-.587733-1.152784-.802595l-27.229554-16.508094c-.866694-.45052-2.026145-.69178-3.214166-.747701v-.01136c-.03943.000969-.07799.0047-.117361.0057-.03942-.000969-.07799-.0047-.11736-.0057zm-34.876923 22.63356c-.235153.68907-.402784 1.430422-.469442 2.231745v15.622211.437262 15.622212c.321327 3.862962 2.892981 6.433257 4.904538 7.598153l27.22766 16.508098c.323675.16825.697028.2979 1.088426.40887l-.177934-33.097589h.0095c0-.02454.0029-.07601.0038-.11736-.0047.0063-.01023.01685-.03407-.09275-.06056-.279104-.217053-.825941-.639805-1.629798-.845476-1.607713-2.77158-4.255911-7.136282-7.609511-6.736645-5.176031-15.658896-10.706121-24.776391-15.881543zm70.200567.709842c-8.683946 4.970554-17.11423 10.229921-23.545939 15.171698-4.3647 3.3536-6.290797 6.001798-7.136282 7.609511-.422739.803857-.579232 1.350694-.639806 1.629798-.02379.109613-.02932.09915-.03407.09275.0019.09346.0095.2669.0095.2669h-.0076l.172247 32.118952 26.536747-16.087868c2.011561-1.164905 4.581323-3.7352 4.902643-7.598153v-15.622212-.437262-15.622211c-.0443-.532905-.13487-1.038493-.25744-1.521903z" fill="#2ec27e"/>
</svg>

<?xml version="1.0" encoding="UTF-8" standalone="no"?>
<svg
   xmlns:dc="http://purl.org/dc/elements/1.1/"
   xmlns:cc="http://creativecommons.org/ns#"
   xmlns:rdf="http://www.w3.org/1999/02/22-rdf-syntax-ns#"
   xmlns:svg="http://www.w3.org/2000/svg"
   xmlns="http://www.w3.org/2000/svg"
   xmlns:xlink="http://www.w3.org/1999/xlink"
   xmlns:sodipodi="http://sodipodi.sourceforge.net/DTD/sodipodi-0.dtd"
   xmlns:inkscape="http://www.inkscape.org/namespaces/inkscape"
   inkscape:version="0.92.3 (2405546, 2018-03-11)"
   sodipodi:docname="balena-etcher-electron.svg"
   id="svg27"
   version="1.0"
   height="128"
   width="128">
  <metadata
     id="metadata31">
    <rdf:RDF>
      <cc:Work
         rdf:about="">
        <dc:format>image/svg+xml</dc:format>
        <dc:type
           rdf:resource="http://purl.org/dc/dcmitype/StillImage" />
        <dc:title />
      </cc:Work>
    </rdf:RDF>
  </metadata>
  <sodipodi:namedview
     inkscape:current-layer="svg27"
     inkscape:window-maximized="1"
     inkscape:window-y="34"
     inkscape:window-x="0"
     inkscape:cy="73.735416"
     inkscape:cx="66.562501"
     inkscape:zoom="6.7438181"
     showgrid="false"
     id="namedview29"
     inkscape:window-height="1009"
     inkscape:window-width="1920"
     inkscape:pageshadow="2"
     inkscape:pageopacity="0"
     guidetolerance="10"
     gridtolerance="10"
     objecttolerance="10"
     borderopacity="1"
     inkscape:document-rotation="0"
     bordercolor="#666666"
     pagecolor="#ffffff">
    <inkscape:grid
       type="xygrid"
       id="grid833" />
  </sodipodi:namedview>
  <defs
     id="defs15">
    <linearGradient
       id="a">
      <stop
         stop-color="#68676b"
         offset="0"
         id="stop2" />
      <stop
         stop-color="#424048"
         offset=".8"
         id="stop4" />
      <stop
         stop-color="#241f31"
         offset="1"
         id="stop6" />
    </linearGradient>
    <radialGradient
       xlink:href="#a"
       gradientUnits="userSpaceOnUse"
       gradientTransform="matrix(1.34416 .0006 -.00062 1.38763 -121.22 -718.103)"
       fy="446.483"
       fx="279.422"
       r="224"
       cy="446.483"
       cx="279.422"
       id="d" />
    <linearGradient
       xlink:href="#b"
       gradientUnits="userSpaceOnUse"
       gradientTransform="matrix(1.0015,0,0,0.99993,361.56007,-90.713525)"
       y2="234"
       y1="234"
       x2="-60"
       x1="43.844"
       id="e" />
    <linearGradient
       id="b">
      <stop
         style="stop-color:#57e389"
         stop-color="#d5d3cf"
         offset="0"
         id="stop11" />
      <stop
         style="stop-color:#8ff0a4"
         stop-color="#e3e2df"
         offset=".038"
         id="stop13" />
      <stop
         style="stop-color:#26a269"
         stop-color="#c0bfbc"
         offset=".077"
         id="stop15" />
      <stop
         style="stop-color:#26a269"
         stop-color="#c0bfbc"
         offset=".923"
         id="stop17" />
      <stop
         style="stop-color:#8ff0a4"
         stop-color="#e3e2df"
         offset=".962"
         id="stop19" />
      <stop
         style="stop-color:#57e389"
         stop-color="#d5d3cf"
         offset="1"
         id="stop21" />
    </linearGradient>
  </defs>
  <path
     sodipodi:nodetypes="cccccccsccccccccccccccccccccsccsccccccccccccc"
     inkscape:connector-curvature="0"
     id="path838"
     d="m 63.993455,7.8766814 v 0.01514 c -1.697196,0.07986 -3.352143,0.423996 -4.590314,1.067603 L 17.830985,30.707105 v 3.876686 c 13.510249,7.083529 29.081133,15.940599 39.932894,24.278502 3.336536,2.563608 5.584812,4.902501 7.119246,6.948884 1.53443,-2.046245 3.78304,-4.385521 7.119245,-6.948884 10.600239,-8.144646 25.705942,-16.786805 38.994,-23.786345 V 31.199262 L 68.920707,8.9594274 c -1.238169,-0.643607 -2.893105,-0.987704 -4.590313,-1.067603 v -0.01514 c -0.05629,9.69e-4 -0.112273,0.0056 -0.16847,0.0076 -0.05629,-0.0019 -0.112144,-0.0066 -0.168469,-0.0076 z M 14.291238,39.868804 C 13.890689,40.945952 13.606212,42.120328 13.5,43.397194 v 22.317444 0.622768 22.319337 c 0.459038,5.518501 4.130133,9.189832 7.003779,10.853962 l 38.899362,23.581915 c 0.743767,0.38662 1.646958,0.65308 2.610327,0.83099 L 61.740889,73.284397 h 0.0095 c 0,-0.02454 0.0029,-0.076 0.0038,-0.11736 -0.0047,0.0063 -0.01023,0.01685 -0.03408,-0.09275 -0.06056,-0.279104 -0.217053,-0.82594 -0.639805,-1.629797 C 60.234786,69.836773 58.308682,67.188575 53.94398,63.834975 43.499611,55.810096 27.830084,46.951646 14.291238,39.868804 Z m 99.968522,0.637912 c -13.25384,6.973411 -28.304149,15.542348 -38.437491,23.328259 -4.3647,3.3536 -6.290797,6.001798 -7.136282,7.609511 -0.422739,0.803857 -0.579232,1.350694 -0.639806,1.629797 -0.02379,0.109614 -0.02933,0.09915 -0.03408,0.09275 0.0019,0.09346 0.0095,0.2669 0.0095,0.2669 h -0.0076 L 68.21941,124 c 0.217379,-0.0876 2.536055,-0.48422 3.150684,-1.00392 L 107.82003,99.510705 c 2.87364,-1.66414 6.54473,-5.335461 7.00377,-10.853962 V 66.337406 65.714638 43.397194 c -0.0855,-1.027623 -0.28169,-1.991962 -0.56408,-2.890478 z"
     style="opacity:0.6;fill:#3d3846;fill-opacity:1;stroke:none;stroke-width:0.45903373px;stroke-linecap:butt;stroke-linejoin:round;stroke-opacity:1" />
  <path
     style="fill:#8ff0a4;fill-opacity:1;stroke:none;stroke-width:0.45903373px;stroke-linecap:butt;stroke-linejoin:round;stroke-opacity:1"
     d="m 63.993455,3.9999954 v 0.015143 c -1.697196,0.07986 -3.352143,0.4239956 -4.590314,1.0676029 L 20.503779,28.664652 c -0.857162,0.496386 -1.780018,1.193073 -2.672794,2.042453 13.510249,7.083529 29.081133,15.940599 39.932894,24.278502 3.336536,2.563608 5.584812,4.902501 7.119246,6.948884 1.53443,-2.046245 3.78304,-4.385521 7.119245,-6.948884 10.600239,-8.144645 25.705942,-16.786805 38.994,-23.786345 -1.04123,-1.088367 -2.15697,-1.944304 -3.1763,-2.53461 L 68.920707,5.0827416 C 67.682538,4.4391343 66.027602,4.0950372 64.330394,4.0151387 v -0.015143 c -0.05629,9.692e-4 -0.112273,0.00563 -0.16847,0.00757 -0.05629,-0.00194 -0.112144,-0.0066 -0.168469,-0.00757 z M 14.291238,35.992118 C 13.890689,37.069266 13.606212,38.243642 13.5,39.520508 v 22.317444 0.622768 22.319338 c 0.459038,5.518501 4.130133,9.189828 7.003779,10.853963 l 38.899362,23.581919 c 0.743767,0.38661 1.646958,0.65307 2.610327,0.83098 L 61.740889,69.407711 h 0.0095 c 0,-0.02454 0.0029,-0.076 0.0038,-0.11736 -0.0047,0.0063 -0.01023,0.01685 -0.03408,-0.09275 -0.06056,-0.279103 -0.217053,-0.82594 -0.639805,-1.629797 C 60.234786,65.960087 58.308682,63.311889 53.94398,59.958289 43.499611,51.93341 27.830084,43.07496 14.291238,35.992118 Z m 99.968522,0.637912 c -13.25384,6.973411 -28.304149,15.542348 -38.437491,23.328259 -4.3647,3.3536 -6.290797,6.001798 -7.136282,7.609511 -0.422739,0.803857 -0.579232,1.350694 -0.639806,1.629798 -0.02379,0.109613 -0.02933,0.09915 -0.03408,0.09275 0.0019,0.09346 0.0095,0.2669 0.0095,0.2669 h -0.0076 l 0.205409,50.566062 c 0.217379,-0.0876 2.536055,-0.48421 3.150684,-1.00391 L 107.82007,95.634021 c 2.87364,-1.664145 6.54473,-5.335462 7.00377,-10.853963 V 62.46072 61.837952 39.520508 c -0.0855,-1.027623 -0.28169,-1.991962 -0.56408,-2.890478 z"
     id="path846"
     inkscape:connector-curvature="0"
     sodipodi:nodetypes="cccccccsccccccccccccccccccccsccsccccccccccccc" />
  <path
     id="path1310"
     d="m 64.044564,21.443189 v 0.01325 c -1.188045,0.05592 -2.347449,0.295279 -3.214167,0.745808 l -27.22766,16.508094 c -0.168104,0.09735 -0.344387,0.220023 -0.518658,0.336938 8.972041,5.135024 17.786454,10.641856 24.6798,15.938328 3.336536,2.563608 5.584812,4.902501 7.119246,6.948884 1.53443,-2.046245 3.78304,-4.385521 7.119245,-6.948884 6.686256,-5.137355 15.181975,-10.470243 23.873419,-15.472671 -0.391435,-0.309783 -0.781756,-0.587733 -1.152784,-0.802595 L 67.493451,22.202247 c -0.866694,-0.45052 -2.026145,-0.69178 -3.214166,-0.747701 v -0.01136 c -0.03943,9.69e-4 -0.07799,0.0047 -0.117361,0.0057 -0.03942,-9.69e-4 -0.07799,-0.0047 -0.11736,-0.0057 z m -34.876923,22.63356 c -0.235153,0.68907 -0.402784,1.430422 -0.469442,2.231745 v 15.622211 0.437262 15.622212 c 0.321327,3.862962 2.892981,6.433257 4.904538,7.598153 l 27.22766,16.508098 c 0.323675,0.16825 0.697028,0.2979 1.088426,0.40887 L 61.740889,69.407711 h 0.0095 c 0,-0.02454 0.0029,-0.07601 0.0038,-0.11736 -0.0047,0.0063 -0.01023,0.01685 -0.03407,-0.09275 C 61.659559,68.918497 61.503066,68.37166 61.080314,67.567803 60.234838,65.96009 58.308734,63.311892 53.944032,59.958292 47.207387,54.782261 38.285136,49.252171 29.167641,44.076749 Z m 70.200567,0.709842 c -8.683946,4.970554 -17.11423,10.229921 -23.545939,15.171698 -4.3647,3.3536 -6.290797,6.001798 -7.136282,7.609511 -0.422739,0.803857 -0.579232,1.350694 -0.639806,1.629798 -0.02379,0.109613 -0.02932,0.09915 -0.03407,0.09275 0.0019,0.09346 0.0095,0.2669 0.0095,0.2669 h -0.0076 L 68.186258,101.6762 94.723005,85.588332 c 2.011561,-1.164905 4.581323,-3.7352 4.902643,-7.598153 V 62.367967 61.930705 46.308494 c -0.0443,-0.532905 -0.13487,-1.038493 -0.25744,-1.521903 z"
     style="fill:#2ec27e;fill-opacity:1;stroke:none;stroke-width:0.32132357px;stroke-linecap:butt;stroke-linejoin:round;stroke-opacity:1"
     inkscape:connector-curvature="0" />
</svg>
